X:1
T:6 vierstimmige Hymnen oder Figuralgesänge
T:Hymne, Zur Adventsfeier
T:Friedrich Silcher
T:Hymne
T:Op. 9, 1
T:CPDL   —   Creative Commons Attribution Non Commercial 3.0
T:CPDL   —   Creative Commons Attribution Non Commercial 3.0
T:CPDL   —   Creative Commons Attribution Non Commercial 3.0
T:CPDL   —   Creative Commons Attribution Non Commercial 3.0
C:Friedrich Silcher
Z:CPDL   —   Creative Commons Attribution Non Commercial 3.0
%%score [ ( 1 2 ) 3 4 ]
L:1/8
Q:1/4=90
M:2/2
K:D
V:1 treble nm="Sopran\nAlt"
V:2 treble 
V:3 treble-8 nm="Tenor"
V:4 bass nm="Bass"
V:1
!mf!"^Gemäßigt""^Halbchor" F4 A2"^cresc." A2 | d3 d d2 z2 |!f! e4 c2 A2 | f4 z4 | %4
w: Al- les, was|O- dem hat,|lo- be den|Herrn!|
!mf! e4 e2"^cresc." e2 | A3 A A2 z2 |!f! c4 B2 B2 | A4 z4 |!mf!"^Chor" F4 A2 A2 | d3 d d2 z2 | %10
w: Al- les, was|O- dem hat,|lo- be den|Herrn!|Al- les, was|O- dem hat,|
!<(! e4!<)! c2 A2 | f4 z4 |!f! g4 e2 e2 | c3 c A2 z2 | d4!>(! d2 d2!>)! | e4 z4 |: %16
w: lo- be den|Herrn!|Al- les, was|O- dem hat,|lo- be den|Herrn!|
!mf! (A2 ^G2) A2 B2 | c4 z4 | (c2 B2) c2 d2 | e4 z4 | (e2"^cresc." d2 e2 f2 |1 g2 f2 e2) d2 | %22
w: lo- * be den|Herrn,|lo- * be den|Herrn,|lo- * * *|* * * be,|
!f! c4 d2 f2 | e4 z4 :|2 (g2 f2 e2 d2) || e4 c2 c2 | d4 |: z4 | z4 z2!mf! d2 | B6 B2 | %30
w: lo- be den|Herrn,|* * * be,|lo- be den|Herrn,||was|O- dem|
 A4 z2!p! A2 | G6 G2 | !breath!F4 F2 F2 |"^cresc." (B8 | A4) c2 c2 | d4 :| z4 |!f! e4 c2 A2 | %38
w: hat, was|O- dem|hat, lo- be,|lo-|* be den|Herrn,||Al- les, was|
 f3 f d2 z2 | (e2 f2 g2 e2 | d4 A4 | f4) e2 e2 | !breath!d4 (c4 | B4 A4 | G2 A2 B2 G2 | %45
w: O- dem hat,|lo- * * *||* be den|Herrn, lo-|||
 F2 A2) (A2 d2) | f4 e2 e2 | d4!ff! d3 d | e8 | f4 d3 d | d8- | d8 | !fermata!d8 |] %53
w: * * be, _|lo- be den|Herrn. Hal- le-|lu-|ja! Hal- le-|lu-||ja!|
V:2
 D4 E2 E2 | D3 F F2 x2 | A4 A2 A2 | A4 x4 | A4 E2 E2 | F3 F F2 x2 | A4 ^G2 G2 | A4 x4 | D4 E2 E2 | %9
w: |||||||||
 D3 F F2 x2 | A4 A2 A2 | A4 x4 | G4 B2 B2 | A3 A A2 x2 | F4 F2 ^G2 | A4 x4 |: x8 | %17
w: ||||||||
 z2!mf! A2 A2 A2 | E2 z2 z4 | z2 A2 A2 A2 | A2 z2 z4 |1 z8 | A4 A2 A2 | A4 x4 :|2 z8 || B4 A2 G2 | %26
w: was O- dem|hat,|was O- dem|hat,||||||
 F4 |: x4 | x4 x2 F2 | G6 G2 | F4 x2 F2 | D6 D2 | D4 D2 D2 | (G8 | E4) E2 E2 | F4 :| x4 | %37
w: |||||||||||
 A4 A2 A2 | A3 A F2 x2 | (G2 A2 B2 G2 | F4 A4 | A4) A2 G2 | F4 (A4 | G4 F4 | E2 F2 G2 E2 | %45
w: ||||||||
 D2 F2) (F2 A2) | A4 A2 A2 | F4 A3 F | A8 | A4 A3 F | G8- | G8 | F8 |] %53
w: ||||||||
V:3
!mf! A4 A2"^cresc." A2 | F3 B B2 z2 |!f! c4 e2 c2 | d4 z4 |!mf! c4 B2"^cresc." B2 | c3 c c2 z2 | %6
w: Al- les, was|O- dem hat,|lo- be den|Herrn!|Al- les, was|O- dem hat,|
!f! e4 e2 d2 | c4 z4 |!mf! A4 A2 A2 | F3 B B2 z2 |!<(! c4!<)! e2 c2 | d4 z4 |!f! B4 e2 e2 | %13
w: lo- be den|Herrn!|Al- les, was|O- dem hat,|lo- be den|Herrn!|Al- les, was|
 e3 e c2 z2 | d4!>(! d2 d2!>)! | c4 z4 |:!mf! (c2 B2) c2 d2 | e4 z4 | (A2 ^G2) A2 B2 | c4 z4 | %20
w: O- dem hat,|lo- be den|Herrn!|lo- * be den|Herrn,|lo- * be den|Herrn,|
 (c2"^cresc." B2 c2 d2 |1 e2 d2 g2) f2 |!f! e4 d2 d2 | c4 z4 :|2 (e2 d2 g2 f2) || e4 e2 e2 | d4 |: %27
w: lo- * * *|* * * be,|lo- be den|Herrn,|* * * be,|lo- be den|Herrn!|
 z2!mf! d2 | d8- | d6 d2 | d4 z2!p! d2 | B6 B2 | !breath!A4 B2 B2 |"^cresc." (d4 e2 d2 | %34
w: was|O-|* dem|hat, was|O- dem|hat, lo- be,|lo- * *|
 c4) A2 A2 | A4 :| z4 |!f! c4 e2 c2 | d3 d d2 z2 | (B2 A2 G2 B2 | d8- | d4) c2 c2 | %42
w: * be den|Herrn!||Al- les, was|O- dem hat,|lo- * * *||* be den|
 !breath!d4 (f4 | d8 | B2 A2 G2 B2 | A2 d2) (d2 f2) | d4 c2 c2 | d4!ff! d3 d | c8 | d4 d3 d | (B8 | %51
w: Herrn, lo-|||* * be, _|lo- be den|Herrn, Hal- le-|lu-|ja! Hal- le-|lu-|
 d4 B4) | !fermata!A8 |] %53
w: * ja!||
V:4
!mf! D,4 C,2"^cresc." C,2 | B,,3 B,, B,,2 z2 |!f! A,,4 A,2 A,2 | D,4 z4 | %4
w: ||||
!mf! A,4 ^G,2"^cresc." G,2 | F,3 F, F,2 z2 |!f! E,4 E,2 E,2 | A,,4 z4 |!mf! D,4 C,2 C,2 | %9
w: |||||
 B,,3 B,, B,,2 z2 |!<(! A,,4!<)! A,2 A,2 | D,4 z4 |!f! E,4 G,2 G,2 | A,3 A, A,2 z2 | %14
w: |||||
 B,4!>(! B,2 B,2!>)! | A,4 z4 |: z8 | z2!mf! A,2 A,2 A,,2 | A,,2 z2 z4 | z2 A,2 A,2 A,,2 | %20
w: |||was O- dem|hat,|was O- dem|
 A,,2 z2 z4 |1 z8 |!f! A,4 F,2 D,2 | A,,4 z4 :|2 A,6 B,2 || G,4 A,2 A,2 | D,4 |: z2!mf! D,2 | %28
w: hat,||||lo- be,||||
 D,8- | D,6 D,2 | D,4 z2!p! D,2 | D,6 D,2 | !breath!D,4 [B,,B,]2 [B,,B,]2 |"^cresc." (([G,,G,]8 | %34
w: ||||||
 [A,,A,]4)) A,,2 A,,2 | D,4 :| z4 |!f! A,,4 A,2 A,2 | D,3 F, B,2 z2 | (G,2 F,2 E,2 G,2 | %40
w: ||||||
 A,4 F,2 D,2 | A,,4) A,2 A,2 | !breath!B,4 (F,4 | G,4 D,4 | G,2 F,2 E,2 G,2 | A,4) (F,2 D,2) | %46
w: ||||||
 A,,4 A,2 A,2 | D,4!ff! F,3 D, | A,8 | D,4 F,3 D, | (G,4 D,4 | B,,4 G,,4) | !fermata!D,8 |] %53
w: |||||||

